X:2524
T:Heather Breeze, The
T:Heathery Breeze
O:england
R:reel
D:Matt Molloy: Heathery Breeze
D:Paddy Moloney & Sean Potts: Tin Whistles
M:C|
K:G
DGBG dGBG|DFAF cFAF|DGBG dGBG|1 BdcA BGAF:|2 BdcA BGBd||
|:~g3f gbag|~f3e fgaf|1 g2gf gbag|fdcA BGBd:|2 defg abag|fdcA BGAF||


